common/svg/branch-icon.svg

<svg fill="none" height="20" viewBox="0 0 20 20" width="20" xmlns="http://www.w3.org/2000/svg"><path clip-rule="evenodd" d="m14.1888 2.87415c-.2487 0-.4871.09877-.663.27459-.1758.17581-.2745.41427-.2745.66291s.0987.4871.2745.66291c.1759.17582.4143.27459.663.27459.2486 0 .4871-.09877.6629-.27459.1758-.17581.2746-.41427.2746-.66291s-.0988-.4871-.2746-.66291c-.1758-.17582-.4143-.27459-.6629-.27459zm-2.8125.9375c.0001-.51558.142-1.02121.4101-1.46161s.6521-.79863 1.11-1.03554.9722-.343386 1.4865-.30779c.5144.0356 1.0091.2119 1.43.50964s.7519.70545.9568 1.17859c.2049.47313.2757.99348.2049 1.50417-.0709.51069-.2808.99207-.6068 1.39154-.3259.39946-.7554.70164-1.2415.8735v.785c0 .8288-.3293 1.62366-.9153 2.20971-.5861.58604-1.3809.91534-2.2097.91534h-5.00004c-.33152 0-.64947.1316-.88389.3661-.23442.2344-.36611.5523-.36611.8839v1.41c.62586.2211 1.15338.6564 1.48931 1.2289s.45865 1.2454.34645 1.8996c-.1122.6543-.45208 1.2478-.95957 1.6756-.50749.4279-1.1499.6626-1.81369.6626s-1.30621-.2347-1.8137-.6626c-.50749-.4278-.84737-1.0213-.95957-1.6756-.1122-.6542.01052-1.3271.34645-1.8996s.86345-1.0078 1.48932-1.2289v-6.57005c-.62552-.22115-1.15271-.65631-1.48841-1.22857s-.45828-1.24478-.34609-1.89868.45194-1.24709.95919-1.67472c.50725-.42764 1.14935-.66218 1.81281-.66218.66345 0 1.30555.23454 1.8128.66218.50725.42763.847 1.02082.95919 1.67472s-.01039 1.32642-.34609 1.89868-.86289 1.00742-1.4884 1.22857v2.295c.39424-.17204.81985-.26057 1.25-.26h5.00004c.3315 0 .6494-.1317.8838-.36612.2345-.23442.3662-.55236.3662-.88388v-.785c-.5485-.19392-1.0234-.55315-1.3592-1.0282s-.516-1.04254-.5158-1.6243zm-6.56254 10.93755c-.24864 0-.4871.0987-.66292.2745-.17581.1759-.27458.4143-.27458.663 0 .2486.09877.487.27458.6629.17582.1758.41428.2746.66292.2746s.48709-.0988.66291-.2746c.17581-.1759.27459-.4143.27459-.6629 0-.2487-.09878-.4871-.27459-.663-.17582-.1758-.41427-.2745-.66291-.2745zm-.9375-10.93755c0-.24864.09877-.4871.27458-.66291.17582-.17582.41428-.27459.66292-.27459s.48709.09877.66291.27459c.17581.17581.27459.41427.27459.66291s-.09878.4871-.27459.66291c-.17582.17582-.41427.27459-.66291.27459s-.4871-.09877-.66292-.27459c-.17581-.17581-.27458-.41427-.27458-.66291z" fill="#000" fill-rule="evenodd"/></svg>

<svg width="20" height="20" viewBox="0 0 20 20" fill="none" xmlns="http://www.w3.org/2000/svg">
<path fill-rule="evenodd" clip-rule="evenodd" d="M14.1888 2.87415C13.9401 2.87415 13.7017 2.97292 13.5258 3.14874C13.35 3.32455 13.2513 3.56301 13.2513 3.81165C13.2513 4.06029 13.35 4.29875 13.5258 4.47456C13.7017 4.65038 13.9401 4.74915 14.1888 4.74915C14.4374 4.74915 14.6759 4.65038 14.8517 4.47456C15.0275 4.29875 15.1263 4.06029 15.1263 3.81165C15.1263 3.56301 15.0275 3.32455 14.8517 3.14874C14.6759 2.97292 14.4374 2.87415 14.1888 2.87415ZM11.3763 3.81165C11.3764 3.29607 11.5183 2.79044 11.7864 2.35004C12.0545 1.90964 12.4385 1.55141 12.8964 1.3145C13.3543 1.07759 13.8686 0.971114 14.3829 1.00671C14.8973 1.04231 15.392 1.21861 15.8129 1.51635C16.2338 1.81409 16.5648 2.2218 16.7697 2.69494C16.9746 3.16807 17.0454 3.68842 16.9746 4.19911C16.9037 4.7098 16.6938 5.19118 16.3678 5.59065C16.0419 5.99011 15.6124 6.29229 15.1263 6.46415V7.24915C15.1263 8.07795 14.797 8.87281 14.211 9.45886C13.6249 10.0449 12.8301 10.3742 12.0013 10.3742H7.00126C6.66974 10.3742 6.35179 10.5058 6.11737 10.7403C5.88295 10.9747 5.75126 11.2926 5.75126 11.6242V13.0342C6.37712 13.2553 6.90464 13.6906 7.24057 14.2631C7.5765 14.8356 7.69922 15.5085 7.58702 16.1627C7.47482 16.817 7.13494 17.4105 6.62745 17.8383C6.11996 18.2662 5.47755 18.5009 4.81376 18.5009C4.14997 18.5009 3.50755 18.2662 3.00006 17.8383C2.49257 17.4105 2.15269 16.817 2.04049 16.1627C1.92829 15.5085 2.05101 14.8356 2.38694 14.2631C2.72287 13.6906 3.25039 13.2553 3.87626 13.0342V6.46415C3.25074 6.243 2.72355 5.80784 2.38785 5.23558C2.05215 4.66332 1.92957 3.9908 2.04176 3.3369C2.15395 2.683 2.4937 2.08981 3.00095 1.66218C3.5082 1.23454 4.1503 1 4.81376 1C5.47721 1 6.11931 1.23454 6.62656 1.66218C7.13381 2.08981 7.47356 2.683 7.58575 3.3369C7.69794 3.9908 7.57536 4.66332 7.23966 5.23558C6.90396 5.80784 6.37677 6.243 5.75126 6.46415V8.75915C6.1455 8.58711 6.57111 8.49858 7.00126 8.49915H12.0013C12.3328 8.49915 12.6507 8.36745 12.8851 8.13303C13.1196 7.89861 13.2513 7.58067 13.2513 7.24915V6.46415C12.7028 6.27023 12.2279 5.911 11.8921 5.43595C11.5563 4.9609 11.3761 4.39341 11.3763 3.81165V3.81165ZM4.81376 14.7492C4.56512 14.7492 4.32666 14.8479 4.15084 15.0237C3.97503 15.1996 3.87626 15.438 3.87626 15.6867C3.87626 15.9353 3.97503 16.1737 4.15084 16.3496C4.32666 16.5254 4.56512 16.6242 4.81376 16.6242C5.0624 16.6242 5.30085 16.5254 5.47667 16.3496C5.65248 16.1737 5.75126 15.9353 5.75126 15.6867C5.75126 15.438 5.65248 15.1996 5.47667 15.0237C5.30085 14.8479 5.0624 14.7492 4.81376 14.7492ZM3.87626 3.81165C3.87626 3.56301 3.97503 3.32455 4.15084 3.14874C4.32666 2.97292 4.56512 2.87415 4.81376 2.87415C5.0624 2.87415 5.30085 2.97292 5.47667 3.14874C5.65248 3.32455 5.75126 3.56301 5.75126 3.81165C5.75126 4.06029 5.65248 4.29875 5.47667 4.47456C5.30085 4.65038 5.0624 4.74915 4.81376 4.74915C4.56512 4.74915 4.32666 4.65038 4.15084 4.47456C3.97503 4.29875 3.87626 4.06029 3.87626 3.81165Z" fill="black"/>
</svg>
